svgs/duotone/align-center.svg

<svg xmlns="http://www.w3.org/2000/svg" viewBox="0 0 448 512"><!--! Font Awesome Pro 6.4.0 by @fontawesome - https://fontawesome.com License - https://fontawesome.com/license (Commercial License) Copyright 2023 Fonticons, Inc. --><defs><style>.fa-secondary{opacity:.4}</style></defs><path class="fa-primary" d="M32 480c-17.7 0-32-14.3-32-32s14.3-32 32-32H416c17.7 0 32 14.3 32 32s-14.3 32-32 32H32zm0-256c-17.7 0-32-14.3-32-32s14.3-32 32-32H416c17.7 0 32 14.3 32 32s-14.3 32-32 32H32z"/><path class="fa-secondary" d="M128 352c-17.7 0-32-14.3-32-32s14.3-32 32-32H320c17.7 0 32 14.3 32 32s-14.3 32-32 32H128zm0-256c-17.7 0-32-14.3-32-32s14.3-32 32-32H320c17.7 0 32 14.3 32 32s-14.3 32-32 32H128z"/></svg>

<svg xmlns="http://www.w3.org/2000/svg" viewBox="0 0 448 512"><!--! Font Awesome Pro 6.3.0 by @fontawesome - https://fontawesome.com License - https://fontawesome.com/license (Commercial License) Copyright 2023 Fonticons, Inc. --><defs><style>.fa-secondary{opacity:.4}</style></defs><path class="fa-primary" d="M32 480C14.33 480 0 465.7 0 448C0 430.3 14.33 416 32 416H416C433.7 416 448 430.3 448 448C448 465.7 433.7 480 416 480H32zM32 224C14.33 224 0 209.7 0 192C0 174.3 14.33 160 32 160H416C433.7 160 448 174.3 448 192C448 209.7 433.7 224 416 224H32z"/><path class="fa-secondary" d="M128 352C110.3 352 96 337.7 96 320C96 302.3 110.3 288 128 288H320C337.7 288 352 302.3 352 320C352 337.7 337.7 352 320 352H128zM128 96C110.3 96 96 81.67 96 64C96 46.33 110.3 32 128 32H320C337.7 32 352 46.33 352 64C352 81.67 337.7 96 320 96H128z"/></svg>
